src/status/symbolic/bluetooth-acquiring-symbolic.svg

<?xml version="1.0" encoding="UTF-8" standalone="no"?>
<svg
   width="16px"
   height="16px"
   version="1.1"
   viewBox="0 0 16 16"
   id="svg3"
   sodipodi:docname="bluetooth-acquiring-symbolic.svg"
   inkscape:version="1.3.2 (091e20ef0f, 2023-11-25)"
   xmlns:inkscape="http://www.inkscape.org/namespaces/inkscape"
   xmlns:sodipodi="http://sodipodi.sourceforge.net/DTD/sodipodi-0.dtd"
   xmlns="http://www.w3.org/2000/svg"
   xmlns:svg="http://www.w3.org/2000/svg">
  <defs
     id="defs3" />
  <sodipodi:namedview
     id="namedview3"
     pagecolor="#ffffff"
     bordercolor="#111111"
     borderopacity="1"
     inkscape:showpageshadow="0"
     inkscape:pageopacity="0"
     inkscape:pagecheckerboard="1"
     inkscape:deskcolor="#d1d1d1"
     inkscape:zoom="25.09375"
     inkscape:cx="5.8779577"
     inkscape:cy="3.8854296"
     inkscape:window-width="1920"
     inkscape:window-height="1011"
     inkscape:window-x="0"
     inkscape:window-y="0"
     inkscape:window-maximized="1"
     inkscape:current-layer="svg3" />
  <path
     d="M 7.4061199,0 A 0.57164525,0.57164525 0 0 0 7.1940036,0.04912113 0.57164525,0.57164525 0 0 0 6.8568581,0.56935774 V 5.7136505 H 8.0000343 V 1.8420558 l 3.6237537,3.2196414 -1.042702,0.6519647 h 2.156831 l 0.138426,-0.087078 a 0.57164525,0.57164525 0 0 0 0.07592,-0.9109745 L 7.8079647,0.14290502 A 0.57164525,0.57164525 0 0 0 7.4060697,7.9947174e-6 Z M 3.5233221,4.577163 A 0.57158808,0.57158808 0 0 0 2.9428058,4.8384017 0.57158808,0.57158808 0 0 0 3.1236562,5.6265645 l 0.1384273,0.087078 H 5.4212004 L 3.7310144,4.6575421 A 0.57158808,0.57158808 0 0 0 3.5233678,4.577163 Z M 3.2620835,10.2863 3.1236562,10.373377 a 0.57158808,0.57158808 0 0 0 -0.1808504,0.788163 0.57158808,0.57158808 0 0 0 0.7881628,0.18085 l 1.690186,-1.0561 H 3.2620378 Z m 3.5947174,0 v 5.144292 a 0.57164525,0.57164525 0 0 0 0.9511569,0.426462 L 12.95225,11.284349 A 0.57164525,0.57164525 0 0 0 12.87634,10.373375 L 12.737915,10.2863 h -2.156831 l 1.042703,0.651965 -3.6237543,3.219642 V 10.286308 H 6.8568512 Z"
     fill="#363636"
     opacity="0.35"
     id="path1"
     style="stroke-width:1.14317" />
  <circle
     cx="8"
     cy="7.9999471"
     r="1.1431762"
     fill="#363636"
     stop-color="#000000"
     stroke-linecap="round"
     stroke-linejoin="round"
     stroke-width="2.28635"
     id="circle1" />
  <circle
     cx="3.4272952"
     cy="7.9999471"
     r="1.1431762"
     fill="#363636"
     stop-color="#000000"
     stroke-linecap="round"
     stroke-linejoin="round"
     stroke-width="2.28635"
     id="circle2" />
  <circle
     cx="12.572705"
     cy="7.9999471"
     r="1.1431762"
     fill="#363636"
     stop-color="#000000"
     stroke-linecap="round"
     stroke-linejoin="round"
     stroke-width="2.28635"
     id="circle3" />
</svg>

<?xml version="1.0" encoding="UTF-8"?>
<svg id="svg3" width="16px" height="16px" version="1.1" viewBox="0 0 16 16" xmlns="http://www.w3.org/2000/svg">
 <path id="path1" d="m7.4061 0a0.57165 0.57165 0 0 0-0.21212 0.049121 0.57165 0.57165 0 0 0-0.33715 0.52024v5.1443h1.1432v-3.8716l3.6238 3.2196-1.0427 0.65196h2.1568l0.13843-0.087078a0.57165 0.57165 0 0 0 0.07592-0.91097l-5.1443-4.5727a0.57165 0.57165 0 0 0-0.4019-0.1429zm-3.8828 4.5772a0.57159 0.57159 0 0 0-0.58052 0.26124 0.57159 0.57159 0 0 0 0.18085 0.78816l0.13843 0.087078h2.1591l-1.6902-1.0561a0.57159 0.57159 0 0 0-0.20765-0.080379zm-0.26124 5.7091-0.13843 0.087077a0.57159 0.57159 0 0 0-0.18085 0.78816 0.57159 0.57159 0 0 0 0.78816 0.18085l1.6902-1.0561h-2.1591zm3.5947 0v5.1443a0.57165 0.57165 0 0 0 0.95116 0.42646l5.1443-4.5727a0.57165 0.57165 0 0 0-0.07591-0.91097l-0.13842-0.087075h-2.1568l1.0427 0.65196-3.6238 3.2196v-3.8716h-1.1432z" fill="#363636" opacity=".35" stroke-width="1.1432"/>
 <circle id="circle1" cx="8" cy="7.9999" r="1.1432" fill="#363636" stop-color="#000000" stroke-linecap="round" stroke-linejoin="round" stroke-width="2.2864"/>
 <circle id="circle2" cx="3.4273" cy="7.9999" r="1.1432" fill="#363636" stop-color="#000000" stroke-linecap="round" stroke-linejoin="round" stroke-width="2.2864"/>
 <circle id="circle3" cx="12.573" cy="7.9999" r="1.1432" fill="#363636" stop-color="#000000" stroke-linecap="round" stroke-linejoin="round" stroke-width="2.2864"/>
</svg>
